pk/headset.svg

<svg viewBox="0 0 48 48" fill="none" xmlns="http://www.w3.org/2000/svg" height="1em" width="1em">
  <path d="M42 30V24.4615C42 14.2655 33.9411 6 24 6C14.0589 6 6 14.2655 6 24.4615V30" stroke="black" stroke-width="4" stroke-linecap="round" stroke-linejoin="round"/>
  <path d="M34 32C34 29.7909 35.7909 28 38 28H42V42H38C35.7909 42 34 40.2091 34 38V32Z" fill="#2F88FF" stroke="black" stroke-width="4" stroke-linejoin="round"/>
  <path d="M42 32H44C45.1046 32 46 32.8954 46 34V36C46 37.1046 45.1046 38 44 38H42V32Z" fill="black"/>
  <path d="M6 32H4C2.89543 32 2 32.8954 2 34V36C2 37.1046 2.89543 38 4 38H6V32Z" fill="black"/>
  <path d="M6 28H10C12.2091 28 14 29.7909 14 32V38C14 40.2091 12.2091 42 10 42H6V28Z" fill="#2F88FF" stroke="black" stroke-width="4" stroke-linejoin="round"/>
</svg>

<svg viewBox="0 0 48 48" fill="none" xmlns="http://www.w3.org/2000/svg" height="1em" width="1em">
  <path d="M42 30v-5.538C42 14.265 33.941 6 24 6S6 14.265 6 24.462V30" stroke="#000" stroke-width="4" stroke-linecap="round" stroke-linejoin="round"/>
  <path d="M34 32a4 4 0 0 1 4-4h4v14h-4a4 4 0 0 1-4-4v-6Z" fill="#2F88FF" stroke="#000" stroke-width="4" stroke-linejoin="round"/>
  <path d="M42 32h2a2 2 0 0 1 2 2v2a2 2 0 0 1-2 2h-2v-6ZM6 32H4a2 2 0 0 0-2 2v2a2 2 0 0 0 2 2h2v-6Z" fill="#000"/>
  <path d="M6 28h4a4 4 0 0 1 4 4v6a4 4 0 0 1-4 4H6V28Z" fill="#2F88FF" stroke="#000" stroke-width="4" stroke-linejoin="round"/>
</svg>
